logos/junit_3.svg

<svg xmlns="http://www.w3.org/2000/svg" viewBox="0 0 16 16" style="enable-background:new 0 0 16 16" xml:space="preserve">
	<style>
		.st2{fill:#25a162}
	</style>
	<g id="Layer_2">
		<path d="M10.2 1.4c-.7-.2-1.4-.3-2.2-.3-3.9 0-7 3.1-7 7 0 2.7 1.5 5 3.7 6.2l.1-3.3s2 .9 3.2.5c1.2-.4 1.2-.8 1.3-1.6s-.7-1.8-1.7-1.8c-1.3 0-2.1.2-2.1.2l-.6-.5.3-4.7h5.1l-.1-1.7z" style="fill:#dc524a"/>
		<path class="st2" d="M4.7 14.3c1 .5 2.1.8 3.3.8 3.9 0 7.1-3.1 7.1-7 0-2.5-1.5-4.5-3.3-5.8-.4-.3-.9-.6-1.4-.8l.1 3.2H6.7l-.2 2.2s4.3-1 4.4 3c.1 2.8-2.6 3-3.9 3.1-1.7 0-2.6-.6-2.4-.6l.1 1.9z"/>
		<path d="M10.3 3c-.5 0-5.1.1-5.1.1l-.3 4.6.7.6s1.5-.4 2.5-.1c.9.4 1.2.9 1.2 1.8s-.5 1.3-1.2 1.5c-.6.2-1.5.1-1.8 0-.4-.1-1.5-.5-1.5-.5l-.1 1.5s.6.4 1.9.5c1.3.1 3-.1 4-1.4.9-1.2.8-4.4-2.2-4.8-1-.1-1.8.1-1.8.1l.2-2.3h3.7L10.3 3z" style="fill:#fff"/>
	</g>
</svg>

<?xml version="1.0" encoding="utf-8"?>
<!-- Generator: Adobe Illustrator 21.1.0, SVG Export Plug-In . SVG Version: 6.00 Build 0)  -->
<svg version="1.1" xmlns="http://www.w3.org/2000/svg" xmlns:xlink="http://www.w3.org/1999/xlink" x="0px" y="0px"
	 viewBox="0 0 16 16" style="enable-background:new 0 0 16 16;" xml:space="preserve">
<style type="text/css">
	.st0{fill:none;stroke:#DC524A;stroke-width:5;stroke-miterlimit:10;}
	.st1{fill:#DC524A;}
	.st2{fill:#25A162;}
	.st3{fill:#FFFFFF;}
</style>
<g id="Layer_4">
	<path class="st0" d="M65-132.5"/>
</g>
<g id="Layer_2">
	<path class="st1" d="M10.2,1.4C9.5,1.2,8.8,1.1,8,1.1c-3.9,0-7,3.1-7,7c0,2.7,1.5,5,3.7,6.2L4.8,11c0,0,2,0.9,3.2,0.5
		c1.2-0.4,1.2-0.8,1.3-1.6S8.6,8.1,7.6,8.1c-1.3,0-2.1,0.2-2.1,0.2L4.9,7.8l0.3-4.7h5.1L10.2,1.4z"/>
	<path class="st2" d="M4.7,14.3c1,0.5,2.1,0.8,3.3,0.8c3.9,0,7.1-3.1,7.1-7c0-2.5-1.5-4.5-3.3-5.8c-0.4-0.3-0.9-0.6-1.4-0.8l0.1,3.2
		H6.7L6.5,6.9c0,0,4.3-1,4.4,3C11,12.7,8.3,12.9,7,13c-1.7,0-2.6-0.6-2.4-0.6L4.7,14.3z"/>
	<path class="st2" d="M10.2,3.2"/>
	<path class="st3" d="M10.3,3c-0.5,0-5.1,0.1-5.1,0.1L4.9,7.7l0.7,0.6c0,0,1.5-0.4,2.5-0.1C9,8.6,9.3,9.1,9.3,10
		c0,0.9-0.5,1.3-1.2,1.5c-0.6,0.2-1.5,0.1-1.8,0C5.9,11.4,4.8,11,4.8,11l-0.1,1.5c0,0,0.6,0.4,1.9,0.5c1.3,0.1,3-0.1,4-1.4
		c0.9-1.2,0.8-4.4-2.2-4.8c-1-0.1-1.8,0.1-1.8,0.1l0.2-2.3l3.7,0L10.3,3z"/>
	<g id="Layer_3">
	</g>
</g>
</svg>
